X:355
T: Chase (The)
S: "Music of Ireland - The Big Session" (DJ Taylor)
Z: B.Black
L: 1/8
M: 4/4
R: reel
K: Em
G2 FG EAAB|cABG AGEF|G2 FG EA A2|DEFG E4 :|
ae e2 de e2|ceBe AE E2|ae e2 de e2|defg e3 f|
g2 fg eA A2|cABG AFEF|G2 FG EA A2|DEFG E4 ||
